!!!COM:      Bach, Johann Sebastian
!!!CDT:      1685/03/31/-1750/07/28/
!!!OPR@@GER: Das wohltemperirte Clavier
!!!OVM@@GER: Band II
!!!OPR@ENG:  Well-Tempered Clavier
!!!OVM@ENG:  Book II
!!!OTL:      Fugue
!!!OKY:      A minor
!!!ONM:      no. 20
!!!SCT:      BWV 889
!!!OMV:      2
**kern	**kern	**kern
*	*	*M4/4
*clefF4	*clefG2	*
*M4/4	*M4/4	*
*met(c)	*met(c)	*
*MM56	*MM56	*MM56
=1-	=1-	=1-
4r	1r	1ryy
4e	.	.
4c	.	.
4f	.	.
=2	=2	=2
4G#	1r	1ryy
4r	.	.
8r	.	.
8d`	.	.
8B`	.	.
8e`	.	.
=3	=3	=3
8c`	4r	1ryy
8A`	.	.
8F#`	4a	.
8d#`	.	.
8E	4g	.
32e	.	.
32dn	.	.
32c	.	.
32B	.	.
8A	4cc	.
32c	.	.
32B	.	.
32A	.	.
32G	.	.
=4	=4	=4
32F#	4d#	1ryy
32G	.	.
[16A	.	.
32A]	.	.
32G	.	.
32F#	.	.
32E	.	.
32D#	4r	.
32E	.	.
[16F#X	.	.
32F#]	.	.
32E	.	.
32D#	.	.
32C#	.	.
8.BB	8r	.
.	8a`	.
32C#X	.	.
32D#X	.	.
8.D#t	8f#`	.
.	8b`	.
32C#	.	.
32D#	.	.
=5	=5	=5
8E	8g`	1ryy
32r	8e`	.
32E	.	.
32Fn	.	.
32G	.	.
8A	8c#`	.
32r	8a`	.
32G	.	.
32F	.	.
32E	.	.
8D	8fn`	.
32r	8d`	.
32D	.	.
32E	.	.
32F	.	.
8G	8B`	.
32r	8g`	.
32F	.	.
32E	.	.
32D	.	.
=6	=6	=6
*	*	*staff:12
*	*	*clefG2
8.C	8e	4r
.	4a	.
16D	.	.
16E	.	4ee
32F	.	.
32E	.	.
16D	8g#	.
16E	.	.
4F	8A	4cc
.	32a	.
.	32gn	.
.	32f	.
.	32e	.
4r	8d	4ff
.	32f	.
.	32e	.
.	32d	.
.	32c	.
=7	=7	=7
*	*staff:11	*
*	*clefF4	*
8r	32B	4g#
.	32c	.
.	[16d	.
8F	32d]	.
.	32c	.
.	32B	.
.	32A	.
8BB	32G#	4r
.	32A	.
.	[16B	.
8D	32B]	.
.	32A	.
.	32G#	.
.	32F#	.
8GG#X	8.E	8r
8BB	.	8dd
.	32F#X	.
.	32G#X	.
4E	8.G#t	8b
.	.	8ee
.	32F#	.
.	32G#	.
=8	=8	=8
8AA	8A	8cc
8r	32r	8a
.	32A	.
.	32B	.
.	32c	.
8r	8d	8f#
8F#	32r	8dd
.	32c	.
.	32B	.
.	32A	.
8G	8G	8b
8r	32r	8g
.	32G	.
.	32A	.
.	32B	.
8r	8c	8e
8E	32r	8cc
.	32B-	.
.	32A	.
.	32G	.
=9	=9	=9
*	*staff:10	*
*	*clefG2	*
8F	16F	8a
.	8f	.
8G	.	8b
.	[16f	.
8A	32f]	[4cc
.	32e	.
.	32f	.
.	32g	.
8G	32a	.
.	32g	.
.	32f	.
.	32e	.
8F	[4d	32cc]
.	.	32cc
.	.	32dd
.	.	32ee
8D	.	32ff
.	.	32ee
.	.	32dd
.	.	32cc
8G	32d]	4b
.	32d	.
.	32e	.
.	32f	.
8F	32g	.
.	32f	.
.	32e	.
.	32d	.
=10	=10	=10
4E	8c	8r
.	8G	32ccc
.	.	32bb
.	.	32aa
.	.	32gg
4A	8c	8ff
.	8f	32aa
.	.	32gg
.	.	32ff
.	.	32ee
4BB	8r	32dd
.	.	32ee
.	.	[16ff
.	8a	32ff]
.	.	32ee
.	.	32dd
.	.	32cc
4r	8d	32b
.	.	32cc
.	.	[16dd
.	8f	32dd]
.	.	32cc
.	.	32b
.	.	32a
=11	=11	=11
8r	8B	8.g
8F	8d	.
.	.	32a
.	.	32b
8D	8f	8.bt
8G	8d	.
.	.	32a
.	.	32b
8.E	8g	4cc
.	8c	.
32E	.	.
32F#	.	.
8.F#t	8A	4r
.	8d	.
32E	.	.
32F#	.	.
=12	=12	=12
8G	8.B	8r
8E	.	8g
.	32B	.
.	32c#	.
4A	8.c#t	8e
.	.	8a
.	32B	.
.	32c#	.
8r	4d	8.f#
8D	.	.
.	.	32f#
.	.	32g#
8BB	4r	8.g#t
8E	.	.
.	.	32f#
.	.	32g#
=13	=13	=13
8C	4r	16a
.	.	32b
.	.	32cc
8AA	.	32dd
.	.	32ee
.	.	32ff#
.	.	32gg#
8FF#	16r	4aa
.	16cc	.
8D#	16b	.
.	[16ff#X	.
8EE	16ff#]	4ggn
.	16b	.
8r	32ee	.
.	32dd	.
.	32cc	.
.	32b	.
4r	8a	4ccc
.	32cc	.
.	32b	.
.	32a	.
.	32g	.
=14	=14	=14
8r	32f#	4dd#
.	32g	.
.	[16a	.
8c	32a]	.
.	32g	.
.	32f#	.
.	32e	.
8F#	32d#X	4r
.	32e	.
.	[16f#X	.
8A	32f#]	.
.	32e	.
.	32d#	.
.	32c#	.
8D#	8.B	8r
8F#X	.	8aa
.	32c#X	.
.	32d#X	.
4B	8.d#t	8ff#X
.	.	8bb
.	32c#	.
.	32d#	.
=15	=15	=15
8E	8e	8gg
32r	8r	8ee
32EE	.	.
32FF	.	.
32GG	.	.
8AA	4r	8cc#
32r	.	8aa
32GG	.	.
32FF	.	.
32EE	.	.
8DD	8r	8ffn
8r	8d	32r
.	.	32dd
.	.	32ee
.	.	32ff
4r	8B	8gg
.	8g	32r
.	.	32ff
.	.	32ee
.	.	32dd
=16	=16	=16
8r	8e	8cc
8A	8r	32r
.	.	32ee
.	.	32ff
.	.	32gg
8F	4r	32aa
.	.	32bb-
.	.	32aa
.	.	32gg
8d	.	32ff
.	.	32ee
.	.	32dd
.	.	32cc
8G#	4r	32bn
.	.	32cc
.	.	32b
.	.	32a
8E	.	32g#
.	.	32f#
.	.	32e
.	.	32d
[4A	32r	8c
.	32e	.
.	32fn	.
.	32gn	.
.	32a	8cc
.	32g	.
.	32f	.
.	32e	.
=17	=17	=17
32A]	8d	[2b
32A	.	.
32B	.	.
32c	.	.
32d	8f	.
32c	.	.
32B	.	.
32A	.	.
32G#	8B	.
32A	.	.
32G#	.	.
32F#	.	.
32E	8d	.
32D	.	.
32C	.	.
32BB	.	.
8AA	4c	16b]
.	.	16e
32A	.	[8a
32Gn	.	.
32Fn	.	.
32E	.	.
8D	4f	16a]
.	.	16A
32F	.	[8d
32E	.	.
32D	.	.
32C	.	.
=18	=18	=18
32BB	4G#	8d]
32C	.	.
[16D	.	.
32D]	.	8ff
32C	.	.
32BB	.	.
32AA	.	.
32GG#	4r	8b
32AA	.	.
[16BB	.	.
32BB]	.	8dd
32AA	.	.
32GG#	.	.
32FF#	.	.
8.EE	8r	4g#X
.	8d	.
32FF#X	.	.
32GG#X	.	.
8.GG#t	8B	[4b
.	8e	.
32FF#	.	.
32GG#	.	.
=19	=19	=19
8.AA	8c	8b]
.	8r	32ee
.	.	32dd
32BB	.	32cc
32C	.	32b
8.C#t	4r	16a
.	.	32cc#
.	.	32ee
.	.	8gg
32BB	.	.
32C#	.	.
8.D	8r	8ff
.	32a	8r
.	32g	.
32E	32f	.
32F	32e	.
8.F#t	16d	4r
.	32f#	.
.	32a	.
.	8ccn	.
32E	.	.
32F#	.	.
=20	=20	=20
8.G	8b	16r
.	.	32dd
.	.	32cc
.	8r	16b
32A	.	32cc
32B	.	32dd
8.Bt	4r	8g
.	.	8ff
32A	.	.
32B	.	.
8.c	16r	8ee
.	32g	.
.	32f	.
.	16e	8r
32d	32f	.
32e	32g	.
8.et	8c	4r
.	8b-	.
32d	.	.
32e	.	.
=21	=21	=21
8.f	16a	4r
.	32bn	.
.	32cc#	.
.	[8dd	.
32g	.	.
32a	.	.
8.aT	8dd]	4aa
.	8cc#X	.
32g	.	.
32a	.	.
16b-	4dd	4ff
32B-X	.	.
32c	.	.
32d	.	.
32c	.	.
32B-	.	.
32A	.	.
32G	4r	4bb-
32F	.	.
32G	.	.
32A	.	.
32B-X	.	.
32A	.	.
32G	.	.
32F	.	.
=22	=22	=22
32E	8r	4cc#
32F	.	.
[16G	.	.
32G]	8b-	.
32F	.	.
32E	.	.
32D	.	.
32C#	8e	4r
32D	.	.
[16E	.	.
32E]	8g	.
32D	.	.
32C#	.	.
32BB	.	.
8.AA	8c#X	8r
.	8ee	8gg
32BB	.	.
32C#X	.	.
8.C#t	[4a	8ee
.	.	8aa
32BB	.	.
32C#	.	.
=23	=23	=23
32D	8a]	8ff
32E	.	.
[16F	.	.
32F]	8a	8dd
32E	.	.
32D	.	.
32C	.	.
32BB	8d	4r
32C	.	.
[16D	.	.
32D]	8f	.
32C	.	.
32BB	.	.
32AA	.	.
8.GG	8B	8r
.	8dd	8ff
32AA	.	.
32BB	.	.
8.BBt	[4g	8dd
.	.	8gg
32AA	.	.
32BB	.	.
=24	=24	=24
8C	8g]	8ee
32r	8r	8cc
32c	.	.
32d	.	.
32e	.	.
8f	4r	8a
32r	.	8ff
32e	.	.
32d	.	.
32c	.	.
8B	8r	8dd
32r	8d	8b
32BB	.	.
32C	.	.
32D	.	.
8E	8B	8g#
32r	8g#X	8ee
32D	.	.
32C	.	.
32BB	.	.
=25	=25	=25
16AA	4a	[4cc
32BB	.	.
32C	.	.
32D	.	.
32E	.	.
32F#	.	.
32G#	.	.
[4A	32r	8cc]
.	32b	.
.	32a	.
.	32gn	.
.	32fn	8r
.	32e	.
.	32d	.
.	32c	.
8A]	8d	32r
.	.	32b
.	.	32cc
.	.	32dd
16G#X	16B	32ee
.	.	32ff#
16F#X	16A	32gg#
.	.	32aa
8E	4G#X	32bb
.	.	32aa
.	.	32gg#X
.	.	32ff#X
8D	.	32ee
.	.	32dd
.	.	32cc
.	.	32b
=26	=26	=26
*	*clefF4	*
4C	4A	32ee
.	.	32dd
.	.	32cc
.	.	32b
.	.	32a
.	.	32g#
.	.	32f#
.	.	32e
4F	4r	32a
.	.	32gn
.	.	32fn
.	.	32e
.	.	32d
.	.	32c
.	.	32B
.	.	32A
4GG#	32r	32f
.	32e	32r
.	32d	16r
.	32c	.
.	32B	8r
.	32A	.
.	32G#X	.
.	32F#	.
4r	32d	4r
.	32c	.
.	32B	.
.	32A	.
.	32G#X	.
.	32F#X	.
.	32E	.
.	32D#	.
=27	=27	=27
*	*staff:2	*
*	*clefG2	*
8r	8E	8r
8Dn	8r	32r
.	.	32e
.	.	32f#
.	.	32g#
8BB	4r	8.g#t
8E	.	.
.	.	32f#
.	.	32g#
8C	8r	[2a
8AA	32r	.
.	32B	.
.	32c	.
.	32d	.
8EE	8.c#t	.
8GG	.	.
.	32B	.
.	32c#	.
=28	=28	=28
32FF	8d	8a]
32EE	.	.
8DD	.	.
.	8f	8b
32EE	.	.
32FF	.	.
8.EEw	8G#	8e
.	8B	8g#X
32DD	.	.
32EE	.	.
2AAA 2AA	2c;y 2e;y	2a;
==	==	==
*-	*-	*-
!!!AFR:  fugue
!!!EFL:  88/96
!!!END:  1994/02/15/
!!!VID:  2855093552 Bach, BWV 889-02
!!!AST:  Baroque
!!!OCY:  Deutschland
!!!ODT:  1742///
!!!PDT:  1801///
!!!EED:  Walter Hewlett
!!!ENC:  Walter Hewlett
!!!YOR:  Bach Gesellschaft Edition xiv
!!!AFT:  enhanced SCORE
!!!RDT:  2011/10/07/ by Andreas Kornstaedt using massScr2hmd
!!!SCA1: Thematisch-systematisches Verzeichnis der musikalischen Werke 
!!!SCA2: Johann Sebastian Bach: Bach-Werke-Verzeichnis (Schmieder)
!!!YEC1: Copyright 1994, 2000 Center for Computer Assisted Research 
!!!YEC2: in the Humanities
!!!YEM1: Rights to all derivative editions reserved.
!!!YEM2: Refer to licensing agreement for further details.
!!!YEN:  United States of America
!!!ref:  @{OTL}, @{SCT}
!!muse2ps: T^@{OTL} @{ONM} in @{OKY}^C^J.S. Bach\n@{SCT}-@{OMV}^
!!muse2ps: u^@{OPR@ENG}, @{OVM@ENG}^j
